Numix/64/apps/jabber.svg

<?xml version="1.0" encoding="UTF-8" standalone="yes"?>
<svg xmlns="http://www.w3.org/2000/svg" xmlns:xlink="http://www.w3.org/1999/xlink" width="64px" height="64px" viewBox="0 0 48 48" version="1.1">
  <g id="surface1">
    <path style=" stroke:none;fill-rule:nonzero;fill:rgb(80%,0%,0%);fill-opacity:1;" d="M 20.246094 23.589844 C 20.246094 23.042969 20.144531 22.445312 19.824219 21.988281 C 19.1875 21.066406 17.828125 20.777344 16.875 21.355469 C 16.394531 21.648438 16.125 22.160156 15.972656 22.683594 C 15.675781 23.726562 15.8125 24.917969 16.023438 25.964844 C 16.089844 26.300781 16.15625 26.636719 16.25 26.964844 C 16.285156 27.082031 16.300781 27.253906 16.378906 27.351562 C 16.511719 27.527344 16.84375 27.574219 17.042969 27.542969 C 17.648438 27.441406 17.5 26.445312 17.476562 26.019531 C 17.429688 25.03125 17.136719 24.066406 17.421875 23.082031 C 17.539062 22.664062 17.773438 22.195312 18.195312 22.011719 C 18.574219 21.847656 18.957031 22.050781 19.109375 22.421875 C 19.351562 23.023438 19.292969 23.71875 19.445312 24.34375 C 19.496094 24.554688 19.550781 24.765625 19.648438 24.964844 C 19.671875 25.023438 19.710938 25.140625 19.792969 25.136719 C 19.988281 25.117188 20.265625 24.789062 20.414062 24.667969 C 20.886719 24.277344 21.375 23.855469 21.921875 23.566406 C 22.179688 23.425781 22.601562 23.210938 22.863281 23.441406 C 22.933594 23.5 22.984375 23.570312 23.035156 23.640625 C 23.34375 24.125 23.035156 24.503906 22.835938 24.960938 C 22.574219 25.554688 22.308594 26.148438 21.933594 26.675781 C 21.609375 27.132812 21.167969 27.535156 20.910156 28.035156 C 20.742188 28.355469 20.648438 28.707031 20.71875 29.070312 C 20.777344 29.363281 21 29.542969 21.300781 29.472656 C 21.523438 29.421875 21.675781 29.230469 21.804688 29.050781 C 22.03125 28.738281 22.242188 28.410156 22.46875 28.089844 C 22.90625 27.476562 23.421875 26.902344 23.792969 26.242188 C 24.234375 25.449219 24.449219 24.546875 24.449219 23.640625 C 24.449219 22.902344 24.175781 21.769531 23.316406 21.617188 C 23.15625 21.585938 22.96875 21.601562 22.808594 21.628906 C 22.609375 21.664062 22.40625 21.730469 22.222656 21.820312 C 21.734375 22.054688 21.308594 22.410156 20.945312 22.8125 C 20.71875 23.0625 20.515625 23.378906 20.242188 23.585938 "/>
    <path style=" stroke:none;fill-rule:nonzero;fill:rgb(80%,0%,0%);fill-opacity:1;" d="M 19.4375 5.273438 C 18.757812 5.363281 18.066406 5.355469 17.382812 5.460938 C 16.074219 5.664062 14.820312 6.070312 13.597656 6.558594 C 13.152344 6.738281 12.710938 6.9375 12.277344 7.148438 C 12.117188 7.226562 11.871094 7.289062 11.742188 7.414062 C 11.675781 7.476562 11.683594 7.628906 11.671875 7.71875 C 11.652344 7.964844 11.621094 8.207031 11.597656 8.453125 C 11.503906 9.398438 11.445312 10.375 11.578125 11.316406 C 11.625 11.625 11.71875 12.175781 12.09375 12.234375 C 12.667969 12.328125 13.117188 11.617188 13.398438 11.222656 C 14.058594 10.308594 14.8125 9.457031 15.898438 9.046875 C 17.171875 8.5625 18.632812 8.449219 19.984375 8.355469 C 23.773438 8.097656 27.910156 8.789062 30.703125 11.582031 C 31.101562 11.980469 31.472656 12.402344 31.796875 12.863281 C 33.042969 14.675781 33.703125 16.734375 34.023438 18.894531 C 34.171875 19.910156 34.277344 20.9375 34.042969 21.949219 C 33.640625 23.703125 32.589844 25.230469 31.382812 26.53125 C 30.550781 27.417969 29.621094 28.222656 28.648438 28.953125 C 28.109375 29.363281 27.503906 29.707031 26.996094 30.15625 C 26.40625 30.667969 25.917969 31.3125 25.546875 31.996094 C 24.550781 33.84375 24.28125 36.0625 24.574219 38.121094 C 24.636719 38.546875 24.691406 38.96875 24.785156 39.386719 C 24.816406 39.511719 24.820312 39.722656 24.898438 39.828125 C 25.050781 40.015625 25.460938 40.121094 25.691406 40.132812 C 25.933594 40.144531 26.09375 39.960938 26.152344 39.742188 C 26.253906 39.375 26.191406 38.964844 26.132812 38.59375 C 26.015625 37.832031 25.90625 37.066406 25.9375 36.292969 C 26 34.867188 26.554688 33.539062 27.539062 32.503906 C 28.539062 31.453125 29.902344 30.847656 31.042969 29.96875 C 33.34375 28.191406 35.40625 25.796875 36.199219 22.949219 C 36.476562 21.929688 36.570312 20.851562 36.441406 19.800781 C 36.28125 18.472656 35.796875 17.148438 35.339844 15.898438 C 33.945312 12.089844 31.558594 8.46875 27.761719 6.726562 C 26.261719 6.035156 24.683594 5.714844 23.054688 5.492188 C 22.292969 5.386719 21.527344 5.320312 20.757812 5.285156 C 20.328125 5.269531 19.863281 5.21875 19.4375 5.277344 "/>
    <path style=" stroke:none;fill-rule:nonzero;fill:rgb(80%,0%,0%);fill-opacity:1;" d="M 13.503906 29.929688 C 12.761719 30.039062 12.546875 30.628906 12.683594 31.300781 C 12.859375 32.15625 13.535156 32.808594 14.199219 33.324219 C 15.90625 34.640625 18.113281 35.351562 20.261719 35.257812 C 21.101562 35.222656 22.019531 35.082031 22.789062 34.726562 C 23.203125 34.535156 23.636719 33.847656 23.070312 33.550781 C 22.996094 33.511719 22.894531 33.488281 22.808594 33.472656 C 22.5625 33.433594 22.289062 33.539062 22.054688 33.605469 C 21.644531 33.722656 21.234375 33.84375 20.808594 33.910156 C 19.546875 34.113281 18.183594 33.824219 17.136719 33.078125 C 16.292969 32.472656 15.605469 31.671875 14.960938 30.867188 C 14.566406 30.371094 14.207031 29.828125 13.5 29.929688 "/>
    <path style=" stroke:none;fill-rule:nonzero;fill:rgb(80%,0%,0%);fill-opacity:1;" d="M 12.542969 34.121094 C 12.355469 34.144531 12.136719 34.136719 11.976562 34.253906 C 11.640625 34.503906 12.011719 35 12.1875 35.222656 C 12.699219 35.875 13.375 36.417969 14.050781 36.894531 C 15.925781 38.222656 18.054688 38.988281 20.339844 39.144531 C 20.996094 39.191406 21.667969 39.144531 22.316406 39.035156 C 22.554688 38.996094 22.851562 38.980469 23.074219 38.875 C 23.695312 38.585938 23.515625 37.410156 22.960938 37.148438 C 22.71875 37.035156 22.328125 37.183594 22.074219 37.21875 C 21.472656 37.304688 20.867188 37.3125 20.261719 37.296875 C 18.679688 37.257812 16.992188 36.769531 15.609375 36 C 15.070312 35.695312 14.574219 35.328125 14.105469 34.917969 C 13.824219 34.667969 13.53125 34.257812 13.164062 34.132812 C 12.992188 34.074219 12.71875 34.097656 12.542969 34.121094 "/>
    <path style=" stroke:none;fill-rule:nonzero;fill:rgb(80%,0%,0%);fill-opacity:1;" d="M 12.917969 37.640625 C 12.652344 37.671875 12.449219 37.8125 12.273438 38.011719 C 12.152344 38.148438 12.035156 38.269531 11.964844 38.445312 C 11.582031 39.394531 12.605469 40.292969 13.316406 40.742188 C 14.097656 41.242188 14.960938 41.613281 15.835938 41.925781 C 17.8125 42.628906 20.132812 43.078125 22.183594 42.449219 C 22.792969 42.261719 23.398438 41.921875 23.839844 41.460938 C 24.089844 41.199219 24.261719 40.804688 23.804688 40.636719 C 23.53125 40.539062 23.203125 40.789062 22.957031 40.890625 C 22.375 41.125 21.769531 41.300781 21.144531 41.378906 C 20.328125 41.476562 19.585938 41.296875 18.792969 41.097656 C 18.117188 40.929688 17.429688 40.761719 16.773438 40.515625 C 16.214844 40.308594 15.664062 40.058594 15.171875 39.714844 C 15.027344 39.609375 14.851562 39.519531 14.734375 39.382812 C 14.339844 38.945312 14.046875 38.429688 13.628906 38.007812 C 13.445312 37.828125 13.1875 37.609375 12.910156 37.640625 "/>
  </g>
</svg>

<svg xmlns="http://www.w3.org/2000/svg" width="64" height="64" viewBox="0 0 48 48">
 <g>
  <path d="m 20.246 23.59 c 0 -0.547 -0.102 -1.145 -0.422 -1.602 c -0.637 -0.922 -1.996 -1.211 -2.949 -0.633 c -0.48 0.293 -0.75 0.805 -0.902 1.328 c -0.297 1.043 -0.16 2.234 0.051 3.281 c 0.066 0.336 0.133 0.672 0.227 1 c 0.035 0.117 0.051 0.289 0.129 0.387 c 0.133 0.176 0.465 0.223 0.664 0.191 c 0.605 -0.102 0.457 -1.098 0.434 -1.523 c -0.047 -0.988 -0.34 -1.953 -0.055 -2.938 c 0.117 -0.418 0.352 -0.887 0.773 -1.07 c 0.379 -0.164 0.762 0.039 0.914 0.41 c 0.242 0.602 0.184 1.297 0.336 1.922 c 0.051 0.211 0.105 0.422 0.203 0.621 c 0.023 0.059 0.063 0.176 0.145 0.172 c 0.195 -0.02 0.473 -0.348 0.621 -0.469 c 0.473 -0.391 0.961 -0.813 1.508 -1.102 c 0.258 -0.141 0.68 -0.355 0.941 -0.125 c 0.07 0.059 0.121 0.129 0.172 0.199 c 0.309 0.484 0 0.863 -0.199 1.32 c -0.262 0.594 -0.527 1.188 -0.902 1.715 c -0.324 0.457 -0.766 0.859 -1.023 1.359 c -0.168 0.32 -0.262 0.672 -0.191 1.035 c 0.059 0.293 0.281 0.473 0.582 0.402 c 0.223 -0.051 0.375 -0.242 0.504 -0.422 c 0.227 -0.313 0.438 -0.641 0.664 -0.961 c 0.438 -0.613 0.953 -1.188 1.324 -1.848 c 0.441 -0.793 0.656 -1.695 0.656 -2.602 c 0 -0.738 -0.273 -1.871 -1.133 -2.023 c -0.16 -0.031 -0.348 -0.016 -0.508 0.012 c -0.199 0.035 -0.402 0.102 -0.586 0.191 c -0.488 0.234 -0.914 0.59 -1.277 0.992 c -0.227 0.25 -0.43 0.566 -0.703 0.773" style="fill:#c00;fill-opacity:1;stroke:none;fill-rule:nonzero"/>
  <path d="m 19.438 5.273 c -0.68 0.09 -1.371 0.082 -2.055 0.188 c -1.309 0.203 -2.563 0.609 -3.785 1.098 c -0.445 0.18 -0.887 0.379 -1.32 0.59 c -0.16 0.078 -0.406 0.141 -0.535 0.266 c -0.066 0.063 -0.059 0.215 -0.07 0.305 c -0.02 0.246 -0.051 0.488 -0.074 0.734 c -0.094 0.945 -0.152 1.922 -0.02 2.863 c 0.047 0.309 0.141 0.859 0.516 0.918 c 0.574 0.094 1.023 -0.617 1.305 -1.012 c 0.66 -0.914 1.414 -1.766 2.5 -2.176 c 1.273 -0.484 2.734 -0.598 4.086 -0.691 c 3.789 -0.258 7.926 0.434 10.719 3.227 c 0.398 0.398 0.77 0.82 1.094 1.281 c 1.246 1.813 1.906 3.871 2.227 6.03 c 0.148 1.016 0.254 2.043 0.02 3.055 c -0.402 1.754 -1.453 3.281 -2.66 4.582 c -0.832 0.887 -1.762 1.691 -2.734 2.422 c -0.539 0.41 -1.145 0.754 -1.652 1.203 c -0.59 0.512 -1.078 1.156 -1.449 1.84 c -0.996 1.848 -1.266 4.066 -0.973 6.125 c 0.063 0.426 0.117 0.848 0.211 1.266 c 0.031 0.125 0.035 0.336 0.113 0.441 c 0.152 0.188 0.563 0.293 0.793 0.305 c 0.242 0.012 0.402 -0.172 0.461 -0.391 c 0.102 -0.367 0.039 -0.777 -0.02 -1.148 c -0.117 -0.762 -0.227 -1.527 -0.195 -2.301 c 0.063 -1.426 0.617 -2.754 1.602 -3.789 c 1 -1.051 2.363 -1.656 3.504 -2.535 c 2.301 -1.777 4.363 -4.172 5.156 -7.02 c 0.277 -1.02 0.371 -2.098 0.242 -3.148 c -0.16 -1.328 -0.645 -2.652 -1.102 -3.902 c -1.395 -3.809 -3.781 -7.43 -7.578 -9.172 c -1.5 -0.691 -3.078 -1.012 -4.707 -1.234 c -0.762 -0.105 -1.527 -0.172 -2.297 -0.207 c -0.43 -0.016 -0.895 -0.066 -1.32 -0.008" style="fill:#c00;fill-opacity:1;stroke:none;fill-rule:nonzero"/>
  <path d="m 13.504 29.93 c -0.742 0.109 -0.957 0.699 -0.82 1.371 c 0.176 0.855 0.852 1.508 1.516 2.023 c 1.707 1.316 3.914 2.027 6.06 1.934 c 0.84 -0.035 1.758 -0.176 2.527 -0.531 c 0.414 -0.191 0.848 -0.879 0.281 -1.176 c -0.074 -0.039 -0.176 -0.063 -0.262 -0.078 c -0.246 -0.039 -0.52 0.066 -0.754 0.133 c -0.41 0.117 -0.82 0.238 -1.246 0.305 c -1.262 0.203 -2.625 -0.086 -3.672 -0.832 c -0.844 -0.605 -1.531 -1.406 -2.176 -2.211 c -0.395 -0.496 -0.754 -1.039 -1.461 -0.938" style="fill:#c00;fill-opacity:1;stroke:none;fill-rule:nonzero"/>
  <path d="m 12.543 34.12 c -0.188 0.023 -0.406 0.016 -0.566 0.133 c -0.336 0.25 0.035 0.746 0.211 0.969 c 0.512 0.652 1.188 1.195 1.863 1.672 c 1.875 1.328 4 2.094 6.289 2.25 c 0.656 0.047 1.328 0 1.977 -0.109 c 0.238 -0.039 0.535 -0.055 0.758 -0.16 c 0.621 -0.289 0.441 -1.465 -0.113 -1.727 c -0.242 -0.113 -0.633 0.035 -0.887 0.07 c -0.602 0.086 -1.207 0.094 -1.813 0.078 c -1.582 -0.039 -3.27 -0.527 -4.652 -1.297 c -0.539 -0.305 -1.035 -0.672 -1.504 -1.082 c -0.281 -0.25 -0.574 -0.66 -0.941 -0.785 c -0.172 -0.059 -0.445 -0.035 -0.621 -0.012" style="fill:#c00;fill-opacity:1;stroke:none;fill-rule:nonzero"/>
  <path d="m 12.918 37.641 c -0.266 0.031 -0.469 0.172 -0.645 0.371 c -0.121 0.137 -0.238 0.258 -0.309 0.434 c -0.383 0.949 0.641 1.848 1.352 2.297 c 0.781 0.5 1.645 0.871 2.52 1.184 c 1.977 0.703 4.297 1.152 6.348 0.523 c 0.609 -0.188 1.215 -0.527 1.656 -0.988 c 0.25 -0.262 0.422 -0.656 -0.035 -0.824 c -0.273 -0.098 -0.602 0.152 -0.848 0.254 c -0.582 0.234 -1.188 0.41 -1.813 0.488 c -0.816 0.098 -1.559 -0.082 -2.352 -0.281 c -0.676 -0.168 -1.363 -0.336 -2.02 -0.582 c -0.559 -0.207 -1.109 -0.457 -1.602 -0.801 c -0.145 -0.105 -0.32 -0.195 -0.438 -0.332 c -0.395 -0.438 -0.688 -0.953 -1.105 -1.375 c -0.184 -0.18 -0.441 -0.398 -0.719 -0.367" style="fill:#c00;fill-opacity:1;stroke:none;fill-rule:nonzero"/>
 </g>
</svg>
